X: 40318
T: Tom Billy's
R: jig
M: 6/8
K: Adorian
|:eAA gAA|edB BAB|G2A BAB|def g2f|
eAA gAA|edB BAB|GBd gag|edB A3:|
|:eaa age|aAa age|g2g gdB|GBd gag|
eaa eae|dgg dgg|edB gag|edB A3:|

